svgs/light/mitten.svg

<svg xmlns="http://www.w3.org/2000/svg" viewBox="0 0 448 512"><!-- Font Awesome Pro 6.0.0-alpha2 by @fontawesome - https://fontawesome.com License - https://fontawesome.com/license (Commercial License) --><path d="M335.987 384H80C53.483 384 31.987 405.49 31.987 432V464C31.987 490.51 53.483 512 80 512H335.987C362.504 512 384 490.51 384 464V432C384 405.49 362.504 384 335.987 384ZM352.116 464C352.116 472.836 344.95 480 336.112 480H80C71.16 480 63.996 472.836 63.996 464V432C63.996 423.162 71.16 416 80 416H336.112C344.95 416 352.116 423.162 352.116 432V464ZM445.655 236.857C436.36 201.314 405.309 180 372.979 180C350.969 180 330.461 189.5 315.955 206.125L295.573 117.125C279.94 48.125 219.916 0 149.887 0C138.633 0 127.254 1.25 116.123 3.875C35.717 22.625 -14.679 103.875 3.828 185L39.239 339.67C40.889 346.885 47.311 352 54.715 352C64.909 352 72.461 342.533 70.194 332.598L34.842 177.75C20.211 113.75 59.852 49.75 123.252 35C132.006 33 140.885 31.875 149.887 31.875C205.035 31.875 252.305 69.75 264.684 124.25L292.196 244.625L299.448 276L319.957 251.25L339.34 227.75C347.592 217.625 359.848 211.875 372.854 211.875C382.983 211.875 392.862 215.5 400.739 222.125C419.371 237.75 421.873 265.5 406.493 284.25L371.936 326.016C363.373 336.361 370.737 352 384.17 352H384.362C389.098 352 393.588 349.885 396.604 346.234L428.629 307.471C444.869 287.812 452.106 261.523 445.655 236.857Z"/></svg>

<svg xmlns="http://www.w3.org/2000/svg" viewBox="0 0 448 512"><!--! Font Awesome Pro 6.3.0 by @fontawesome - https://fontawesome.com License - https://fontawesome.com/license (Commercial License) Copyright 2023 Fonticons, Inc. --><path d="M335.1 384H80c-26.52 0-48.01 21.49-48.01 48v32c0 26.51 21.5 48 48.01 48h255.1C362.5 512 384 490.5 384 464v-32C384 405.5 362.5 384 335.1 384zM352.1 464c0 8.836-7.166 16-16 16H80c-8.84 0-16-7.164-16-16l-.0029-31.1C63.99 423.2 71.16 416 80 416h256.1c8.838 0 15.95 7.163 15.95 16L352.1 464zM445.7 236.9C436.4 201.3 405.3 180 372.1 180c-22.01 0-42.52 9.5-57.02 26.12l-20.38-89C279.9 48.13 219.9 0 149.9 0C138.6 0 127.3 1.25 116.1 3.875c-80.41 18.75-130.8 100-112.3 181.1l35.41 154.7C40.89 346.9 47.31 352 54.71 352c10.19 0 17.75-9.467 15.48-19.4L34.84 177.8c-14.63-64 25.01-128 88.41-142.8C132 33 140.9 31.88 149.9 31.88c55.15 0 102.4 37.88 114.8 92.38L299.4 276l39.89-48.25c8.252-10.12 20.51-15.88 33.51-15.88c10.13 0 20.01 3.625 27.88 10.25c18.63 15.62 21.13 43.38 5.754 62.13l-34.56 41.77C363.4 336.4 370.7 352 384.2 352c4.736 0 9.418-2.115 12.43-5.766l32.03-38.76C444.9 287.8 452.1 261.5 445.7 236.9z"/></svg>
